symbols/web/nest_display/materialsymbolsoutlined/nest_display_wght200gradN25_40px.svg

<svg xmlns="http://www.w3.org/2000/svg" height="40" width="40"><path d="M20 30.792q-4.667 0-6.896-.521t-2.229-1.146v-1.667H6.833q-1.041 0-1.75-.77-.708-.771-.625-1.771l1.167-13.542q.083-.958.729-1.583t1.604-.625h24.084q.958 0 1.604.625.646.625.771 1.583l1.125 13.542q.083 1-.625 1.771-.709.77-1.75.77h-4v1.667q0 .625-2.25 1.146-2.25.521-6.917.521ZM6.875 26.125h26.292q.416 0 .729-.333.312-.334.271-.792l-1.125-13.542q-.042-.416-.334-.666-.291-.25-.708-.25H8q-.417 0-.708.25-.292.25-.292.666L5.833 25q-.041.458.271.792.313.333.771.333Z"/></svg>

<svg xmlns="http://www.w3.org/2000/svg" height="40" width="40"><path d="M20 30.792Q15.333 30.792 13.104 30.271Q10.875 29.75 10.875 29.125V27.458H6.833Q5.792 27.458 5.083 26.688Q4.375 25.917 4.458 24.917L5.625 11.375Q5.708 10.417 6.354 9.792Q7 9.167 7.958 9.167H32.042Q33 9.167 33.646 9.792Q34.292 10.417 34.417 11.375L35.542 24.917Q35.625 25.917 34.917 26.688Q34.208 27.458 33.167 27.458H29.167V29.125Q29.167 29.75 26.917 30.271Q24.667 30.792 20 30.792ZM6.875 26.125H33.167Q33.583 26.125 33.896 25.792Q34.208 25.458 34.167 25L33.042 11.458Q33 11.042 32.708 10.792Q32.417 10.542 32 10.542H8Q7.583 10.542 7.292 10.792Q7 11.042 7 11.458L5.833 25Q5.792 25.458 6.104 25.792Q6.417 26.125 6.875 26.125Z"/></svg>
